F[BALLADE
CUT[Rache im Zweikampf
    Dernier chez nous il-y-a un capitaine]
REG[Mitteleuropa, franzoesische Schweiz, Jura]
SRC[5, S. 105
    1917 gedruckt in Bale und Lausanne]
KEY[Q2097E 08  C 6/8]
MEL[  667b+1+2+1  7b654_4
    667b+1+2+1  7b654_
    5  5_43_.  5+1+2+3_+2  +1+2
    +35_4  3_.555  767+1_. //] >>
FCT[Ballade, Frau in Maennerkleidung, Soldat, Betrug, Rache]
CMT[Schweizerische Fassung der Ballade.]
